X: 6
T: The Fairy Dance
R: reel
M: 4/4
L: 1/8
K: Dmaj
a2aa fdfa|fdfa age2|a2aa fdfa|1 agec defg :|2 agec dcde|f2f2 dBB2|g2gg eccc|a2aa fdfa|1 agec dcde :|2 agec d4||


Tune 424	Setting 13278

